src/assets/images/logos/logo_webpack.svg

<svg xmlns="http://www.w3.org/2000/svg" viewBox="0 0 774 875.7"><title>icon</title><path fill="#FFF" d="M387 0l387 218.9v437.9L387 875.7 0 656.8V218.9z"/><path fill="#8ed6fb" d="M704.9 641.7L399.8 814.3V679.9l190.1-104.6 115 66.4zm20.9-18.9V261.9l-111.6 64.5v232l111.6 64.4zM67.9 641.7L373 814.3V679.9L182.8 575.3 67.9 641.7zM47 622.8V261.9l111.6 64.5v232L47 622.8zm13.1-384.3L373 61.5v129.9L172.5 301.7l-1.6.9-110.8-64.1zm652.6 0l-312.9-177v129.9l200.5 110.2 1.6.9 110.8-64z"/><path fill="#1c78c0" d="M373 649.3L185.4 546.1V341.8L373 450.1v199.2zm26.8 0l187.6-103.1V341.8L399.8 450.1v199.2zm-13.4-207zM198.1 318.2l188.3-103.5 188.3 103.5-188.3 108.7-188.3-108.7z"/></svg>

<svg xmlns="http://www.w3.org/2000/svg" viewBox="0 0 774 875.7"><title>logo_webpack</title><g id="8e1f69cc-8515-469f-9ff5-eba8690846d8" data-name="Calque 2"><g id="27b53cf9-486d-42cd-8b10-c55c33b196aa" data-name="phone"><path d="M387,0,774,218.9V656.8L387,875.7,0,656.8V218.9Z" fill="#fff"/><path d="M704.9,641.7,399.8,814.3V679.9L589.9,575.3l115,66.4Zm20.9-18.9V261.9L614.2,326.4v232l111.6,64.4ZM67.9,641.7,373,814.3V679.9L182.8,575.3ZM47,622.8V261.9l111.6,64.5v232ZM60.1,238.5,373,61.5V191.4L172.5,301.7l-1.6.9Zm652.6,0L399.8,61.5V191.4L600.3,301.6l1.6.9,110.8-64Z" fill="#8ed6fb"/><path d="M373,649.3,185.4,546.1V341.8L373,450.1Zm26.8,0L587.4,546.2V341.8L399.8,450.1ZM198.1,318.2,386.4,214.7,574.7,318.2,386.4,426.9,198.1,318.2Z" fill="#1c78c0"/></g></g></svg>
